!!!OTL@@DE: Der Vogelf&auml;nger
!!!COM: Mozart, Wolfgang Amadeus
!!!OPR: Oper "Die Zauberfl&ouml;te"
!!!ODT: 1791
!!!OMD: Allegretto
!!!LYR: Schikaneder, Emanuel
!!!LDT: 1791
!!!OCL: Erk, Ludwig
!!!GCO: Deutscher Liederschatz, Band 1
**kern	**kern	**kern
*staff3	*staff2	*staff1
*Ipiano	*Ipiano	*Ivox
*clefF4	*clefG2	*clefG2
*k[f#]	*k[f#]	*k[f#]
*G:	*G:	*G:
*M2/4	*M2/4	*M2/4
*MM80	*MM80	*MM80
8r	(16bb\LL	16b/LL
.	16aa\JJ)	16a/JJ
=1	=1	=1
*^	*	*
(16B/LL	4G\	8gg'\L	8g/
16d/	.	.	.
16B/	.	8gg'\J	8g/
16d/JJ	.	.	.
16B/LL	8r	(16aa\LL	16a/LL
16d/	.	16gg\	16g/JJ
16B/	8G\	16ff#\	16f#/LL
16d/JJ)	.	16gg\JJ)	16g/JJ
=2	=2	=2	=2
16F#/ (16A/LL	8D\L	8aa'\L	8a/
16d/	.	.	.
16B/	8G\J	8bb'\J	8b\
16d/JJ	.	.	.
16F#/ 16A/LL	8D\	8aa'\L	8a/
16d/	.	.	.
16F#/ 16A/	8r	(16aa\L	16a/LL
16d/JJ)	.	16ff#\JJ)	16f#/JJ
=3	=3	=3	=3
16F#/ (16A/LL	4D\	8.dd\L	8.d/
16d/	.	.	.
16F#/ 16A/	.	.	.
16d/JJ	.	16dd\Jk	16d'/
16F#/ 16A/LL	8r	8.ddd\L	8.dd\
16d/	.	.	.
16F#/ 16A/	8D\	.	.
16d/JJ)	.	16ddd\Jk	16dd\
=4	=4	=4	=4
(16B/LL	8G\L	8bb'\L	8b\
16d/	.	.	.
16F#/ 16A/	8D\J	8aa'\J	8a/
16d/JJ	.	.	.
16B/LL	8G\	8gg'\L	8g/
16d/	.	.	.
16B/	8r	(16gg\L	8b\
16d/JJ)	.	16bb\JJ)	.
*v	*v	*	*
=5	=5	=5
8D\	16ff#\ (16aa\LL	16a/LL
.	16ee\ 16gg\	16g/JJ
8r	16dd\ 16ff#\	16f#/LL
.	16ee\ 16gg\JJ)	16g/JJ
8D\	16ff#\ (16aa\LL	16a/LL
.	16ee\ 16gg\	16g/JJ
8r	16dd\ 16ff#\	16f#/LL
.	16ee\ 16gg\JJ)	16g/JJ
=6	=6	=6
*^	*	*
(16A/LL	8D\L	8ff#'\ 8aa'\L	8a/
16d/	.	.	.
16B/	8G\J	8gg'\ 8bb'\J	8b/
16d/JJ	.	.	.
16A/LL	8D\	8ff#'\ 8aa'\L	8a/
16d'/	.	.	.
16A/	8r	8ff#'\ 8aa'\J	16r
16d/JJ)	.	.	16a/
=7	=7	=7	=7
16F#/LL	8D\	8.ddd\L	8.dd\
(16A/	.	.	.
16F#/	8r	.	.
16A/JJ	.	16ddd\Jk	16dd\
16E/ 16G/LL	8C#\	8.aa\L	8.a/
16A/	.	.	.
16E/ 16G/	8r	.	.
16A/JJ)	.	16aa\Jk	16a/
=8	=8	=8	=8
(16F#/LL	8D\	8ff#'\L	8f#/
16A/	.	.	.
16C#/ 16E/	8AA\	8ee'\J	8e/
16A/JJ	.	.	.
16F#/LL	8D\	8dd'\L	8d/
16A/	.	.	.
16F#/	8r	8aa\J	8r
16A/JJ)	.	.	.
=9	=9	=9	=9
(16F#/LL	4D\	8.ff#\ 8.ddd\L	2r
16A/	.	.	.
16F#/	.	.	.
16A/JJ	.	16ff#\ 16ddd\Jk	.
16E/ 16G/LL	4C#\	8.ee\ 8.aa\L	.
16A/	.	.	.
16E/ 16G/	.	.	.
16A/JJ)	.	16ee\ 16aa\Jk	.
=10	=10	=10	=10
(16F#/LL	8D\L	8dd'\ 8ff#'\L	4r
16A/	.	.	.
16C#/ 16E/	8AA\J	8cc#'\ 8ee'\J	.
16A/JJ	.	.	.
16F#/LL	8D\	8dd\	8r
16A/	.	.	.
16F#/	8r	(16dd\LL	16d/LL
16A/JJ)	.	16ff#\JJ)	16f#/JJ
=11	=11	=11	=11
16F#/ 16A/LL	4D\	8aa'\L	8a/
(16d/	.	.	.
16F#/ 16A/	.	8aa'\J	8a/
16d/JJ	.	.	.
16F#/ 16A/LL	8r	(16bb\LL	16b/LL
16d/	.	16aa\	16a/JJ
16F#/ 16A/	8D\	16gg\	16g/LL
16d/JJ)	.	16aa\JJ)	16a/JJ
=12	=12	=12	=12
16B/LL	8G\	8bb'\L	8b\
(16d/	.	.	.
16F#/ 16A/	8D'\	8aa'\J	8a/
16d/JJ	.	.	.
16B/LL	8G\	8gg'\L	8g/
16d/	.	.	.
16B/	8r	8ddd\J	8dd\
16d/JJ)	.	.	.
=13	=13	=13	=13
(16c/LL	4A\	8.ff#\L	8.f#/
16d/	.	.	.
16c/	.	.	.
16d/JJ	.	16ff#\Jk	16f#/
16B/LL	&(4G\&)	(16aa\LL	16a/LL
16d/	.	16gg\	16g/JJ
16B/	.	16ff#\	16f#/LL
16d/JJ)	.	16gg\JJ)	16g/JJ
=14	=14	=14	=14
16F#/ 16A/LL	8D\L	8aa'\L	8a/
16d/	.	.	.
16B/	8G\J	8bb'\J	8b\
&(16d/JJ&)	.	.	.
8F#;/ 8A;/	8D\	8aa;\	8a;/
*v	*v	*	*
*clefG2	*	*
8d/ 8a/	8cc\ (8ff#\	8r
=15	=15	=15
&(8g/&)	8b\ 8gg\)	2r
8r	(32gg\LLL	.
.	32aa\	.
.	32bb\	.
.	32ccc\JJJ	.
8r	8ddd\)	.
8d/ 8a/	8ff#\ (8ccc\	.
=16	=16	=16
&(8g/&) 8b/	8gg\ 8bb\)	4r
8r	(32gg\LLL	.
.	32aa\	.
.	32bb\	.
.	32ccc\JJJ	.
4r	8ddd\)	8r
.	(16gg\LL	16g/LL
.	16aa\JJ)	16a/JJ
*clefF4	*	*
=17	=17	=17
*^	*	*
16d/ (16fn/LL	4G\	8.bb\L	8.b\
16g/	.	.	.
16d/ 16f/	.	.	.
16g/JJ	.	16bb\Jk	16b\
16d/ 16f/LL	8r	(16ccc\LL	16cc\LL
16g/	.	16bb\	16b\JJ
16d/ 16f/	8G\	16aa\	16a/LL
16g/JJ)	.	16bb\JJ)	16b/JJ
=18	=18	=18	=18
(16e/LL	8c\L	8ccc'\L	8cc\L
16g/	.	.	.
16B/ 16fn/	8G\J	8ddd'\J	8dd\J
16g/JJ	.	.	.
16e/LL	8c\	8eee\L	8ee\
16g/	.	.	.
16e/	8r	(16ccc\L	16cc/LL
16c/JJ)	.	16aa\JJ)	16a/JJ
=19	=19	=19	=19
16A/ (16c/LL	4D\	8.ff#\L	8.f#/
16d/	.	.	.
16A/ 16c/	.	.	.
16d/JJ	.	16ff#\Jk	16f#/
16A/ 16c/LL	8r	(16gg\LL	16g/LL
16d/	.	16ff#\	16f#/JJ
16A/ 16c/	8D\	16ee\	16e/LL
16d/JJ)	.	16ff#\JJ)	16f#/JJ
=20	=20	=20	=20
16B/LL	8G'\L	(16gg\LL	8g/
16d/	.	16bb\	.
16F#/ 16c/	8D'\J	16aa\	16a/LL
&(16d/JJ&)	.	16ff#\JJ)	16f#/JJ
8B/	8G'\	8gg'\	8g/
8ryy	8r	(32gg\LLL	8r
.	.	32aa\	.
.	.	32bb\	.
.	.	32ccc\JJJ	.
*v	*v	*	*
=21	=21	=21
8r	8ddd\)	2r
*clefG2	*	*
8d/ 8a/L	8ff#\ (8ccc\L	.
&(8g/&) 8b/J	8gg\ 8bb\J)	.
8r	(32gg\LLL	.
.	32aa\	.
.	32bb\	.
.	32ccc\JJJ	.
=22	=22	=22
8r	8ddd\)	2r
(8d/ 8a/L	8cc\ (8ff#\L	.
8g/J)	8b\ 8gg\J)	.
*	*^	*
8r	(16gg/LL	8b\	.
.	16dd/JJ)	.	.
*clefF4	*	*	*
=23	=23	=23	=23
8G\L	8.b/L	16g\LL	2r
.	.	16d\	.
8B\	.	16g\	.
.	16dd/Jk	16b\JJ	.
*	*v	*v	*
8d\	(16b/ 16dd/LL	.
.	16a/ 16cc/	.
*^	*	*
16d/LL	8D\J	16g/ 16b/	.
16c/JJ	.	16f#/) 16a/JJ	.
*v	*v	*	*
=24	=24	=24
8G'\ 8B'\L	8g'/L	4r
8GG'\ 8G'\J	8d'/ 8g'/ 8b'/J	.
8GG'/ 8G'/	8B'/ 8d'/ 8g'/	8r
==	==	==
*-	*-	*-
!!!ENC: Craig Stuart Sapp
!!!END: 2004/06/02/
!!!EFL: 024/651
